src/assets/outline/VideoAdd.svg

<svg width="24" height="24" viewBox="0 0 24 24"  xmlns="http://www.w3.org/2000/svg">
<path d="M15 22.75H9C3.57 22.75 1.25 20.43 1.25 15V9C1.25 3.57 3.57 1.25 9 1.25H15C20.43 1.25 22.75 3.57 22.75 9V15C22.75 15.25 22.75 15.5 22.73 15.74C22.7 16.06 22.48 16.32 22.17 16.4C21.86 16.48 21.54 16.36 21.36 16.09C21.33 16.06 21.27 15.99 21.23 15.94C20.51 15.17 19.53 14.75 18.5 14.75C17.48 14.75 16.52 15.15 15.81 15.88C15.13 16.58 14.75 17.51 14.75 18.5C14.75 19.17 14.94 19.84 15.29 20.43C15.47 20.73 15.69 21.01 15.94 21.23C15.98 21.26 16.01 21.29 16.03 21.31L16.11 21.38C16.34 21.57 16.45 21.9 16.36 22.19C16.27 22.48 16.03 22.7 15.73 22.73C15.51 22.75 15.25 22.75 15 22.75ZM9 2.75C4.39 2.75 2.75 4.39 2.75 9V15C2.75 19.61 4.39 21.25 9 21.25H14.03C14.02 21.23 14.01 21.22 14 21.2C13.51 20.38 13.24 19.44 13.24 18.5C13.24 17.12 13.77 15.82 14.72 14.84C15.7 13.83 17.08 13.25 18.49 13.25C19.47 13.25 20.43 13.52 21.24 14.03V9C21.24 4.39 19.6 2.75 14.99 2.75H9Z" />
<path d="M21.48 7.85986H2.52002C2.11002 7.85986 1.77002 7.51986 1.77002 7.10986C1.77002 6.69986 2.11002 6.35986 2.52002 6.35986H21.48C21.89 6.35986 22.23 6.69986 22.23 7.10986C22.23 7.51986 21.9 7.85986 21.48 7.85986Z" />
<path d="M8.52002 7.71985C8.11002 7.71985 7.77002 7.37985 7.77002 6.96985V2.10986C7.77002 1.69986 8.11002 1.35986 8.52002 1.35986C8.93002 1.35986 9.27002 1.69986 9.27002 2.10986V6.96985C9.27002 7.37985 8.93002 7.71985 8.52002 7.71985Z" />
<path d="M15.48 7.2699C15.07 7.2699 14.73 6.9299 14.73 6.5199V2.10986C14.73 1.69986 15.07 1.35986 15.48 1.35986C15.89 1.35986 16.23 1.69986 16.23 2.10986V6.5199C16.23 6.9399 15.9 7.2699 15.48 7.2699Z" />
<path d="M18.4998 23.75C17.3198 23.75 16.1698 23.35 15.2698 22.61C15.2398 22.59 15.2098 22.57 15.1898 22.55C15.1198 22.49 15.0698 22.45 15.0298 22.41C15.0098 22.4 14.9998 22.39 14.9898 22.37C14.6198 22.04 14.2798 21.64 14.0198 21.2C13.5298 20.38 13.2598 19.44 13.2598 18.5C13.2598 17.12 13.7898 15.82 14.7398 14.84C15.7198 13.83 17.0998 13.25 18.5098 13.25C19.9898 13.25 21.3998 13.87 22.3798 14.96C22.3898 14.97 22.4098 14.99 22.4198 15.01C22.4898 15.08 22.5598 15.17 22.6098 15.25C23.3298 16.12 23.7598 17.29 23.7598 18.5C23.7598 18.94 23.7098 19.35 23.6098 19.74C23.4898 20.24 23.2898 20.73 23.0098 21.2C22.0498 22.78 20.3298 23.75 18.4998 23.75ZM16.0898 21.35C16.1198 21.37 16.1398 21.38 16.1598 21.4C16.8198 21.95 17.6198 22.24 18.4998 22.24C19.8098 22.24 21.0298 21.54 21.7098 20.42C21.9098 20.09 22.0498 19.73 22.1398 19.36C22.2098 19.08 22.2498 18.8 22.2498 18.49C22.2498 17.63 21.9498 16.8 21.3998 16.14L21.3098 16.02C21.2798 15.99 21.2498 15.96 21.2298 15.92C20.5098 15.16 19.5298 14.74 18.4998 14.74C17.4798 14.74 16.5198 15.14 15.8098 15.87C15.1298 16.57 14.7498 17.5 14.7498 18.49C14.7498 19.16 14.9398 19.83 15.2898 20.42C15.4698 20.72 15.6898 21 15.9398 21.22C15.9798 21.25 16.0098 21.28 16.0298 21.3L16.0898 21.35Z" />
<path d="M20.1798 19.23H16.8198C16.4098 19.23 16.0698 18.89 16.0698 18.48C16.0698 18.07 16.4098 17.73 16.8198 17.73H20.1798C20.5898 17.73 20.9298 18.07 20.9298 18.48C20.9298 18.89 20.5998 19.23 20.1798 19.23Z" />
<path d="M18.5 20.9501C18.09 20.9501 17.75 20.6101 17.75 20.2001V16.8401C17.75 16.4301 18.09 16.0901 18.5 16.0901C18.91 16.0901 19.25 16.4301 19.25 16.8401V20.2001C19.25 20.6201 18.91 20.9501 18.5 20.9501Z" />
</svg>

<?xml version="1.0" encoding="UTF-8"?>
<svg width="24" height="24" viewBox="0 0 24 24" xmlns="http://www.w3.org/2000/svg">
 <path d="m15 22.75h-6c-5.43 0-7.75-2.32-7.75-7.75v-6c0-5.43 2.32-7.75 7.75-7.75h6c5.43 0 7.75 2.32 7.75 7.75v6c0 0.25 0 0.5-0.02 0.74-0.03 0.32-0.25 0.58-0.56 0.66s-0.63-0.04-0.81-0.31c-0.03-0.03-0.09-0.1-0.13-0.15-0.72-0.77-1.7-1.19-2.73-1.19-1.02 0-1.98 0.4-2.69 1.13-0.68 0.7-1.06 1.63-1.06 2.62 0 0.67 0.19 1.34 0.54 1.93 0.18 0.3 0.4 0.58 0.65 0.8 0.04 0.03 0.07 0.06 0.09 0.08l0.08 0.07c0.23 0.19 0.34 0.52 0.25 0.81s-0.33 0.51-0.63 0.54c-0.22 0.02-0.48 0.02-0.73 0.02zm-6-20c-4.61 0-6.25 1.64-6.25 6.25v6c0 4.61 1.64 6.25 6.25 6.25h5.03c-0.01-0.02-0.02-0.03-0.03-0.05-0.49-0.82-0.76-1.76-0.76-2.7 0-1.38 0.53-2.68 1.48-3.66 0.98-1.01 2.36-1.59 3.77-1.59 0.98 0 1.94 0.27 2.75 0.78v-5.03c0-4.61-1.64-6.25-6.25-6.25h-5.99z"/>
 <path d="m21.48 7.8599h-18.96c-0.41 0-0.75-0.34-0.75-0.75s0.34-0.75 0.75-0.75h18.96c0.41 0 0.75 0.34 0.75 0.75s-0.33 0.75-0.75 0.75z"/>
 <path d="m8.52 7.7198c-0.41 0-0.75-0.34-0.75-0.75v-4.86c0-0.41 0.34-0.75 0.75-0.75s0.75 0.34 0.75 0.75v4.86c0 0.41-0.34 0.75-0.75 0.75z"/>
 <path d="m15.48 7.2699c-0.41 0-0.75-0.34-0.75-0.75v-4.41c0-0.41 0.34-0.75 0.75-0.75s0.75 0.34 0.75 0.75v4.41c0 0.42-0.33 0.75-0.75 0.75z"/>
 <path d="m18.5 23.75c-1.18 0-2.33-0.4-3.23-1.14-0.03-0.02-0.06-0.04-0.08-0.06-0.07-0.06-0.12-0.1-0.16-0.14-0.02-0.01-0.03-0.02-0.04-0.04-0.37-0.33-0.71-0.73-0.97-1.17-0.49-0.82-0.76-1.76-0.76-2.7 0-1.38 0.53-2.68 1.48-3.66 0.98-1.01 2.36-1.59 3.77-1.59 1.48 0 2.89 0.62 3.87 1.71 0.01 0.01 0.03 0.03 0.04 0.05 0.07 0.07 0.14 0.16 0.19 0.24 0.72 0.87 1.15 2.04 1.15 3.25 0 0.44-0.05 0.85-0.15 1.24-0.12 0.5-0.32 0.99-0.6 1.46-0.96 1.58-2.68 2.55-4.51 2.55zm-2.41-2.4c0.03 0.02 0.05 0.03 0.07 0.05 0.66 0.55 1.46 0.84 2.34 0.84 1.31 0 2.53-0.7 3.21-1.82 0.2-0.33 0.34-0.69 0.43-1.06 0.07-0.28 0.11-0.56 0.11-0.87 0-0.86-0.3-1.69-0.85-2.35l-0.09-0.12c-0.03-0.03-0.06-0.06-0.08-0.1-0.72-0.76-1.7-1.18-2.73-1.18-1.02 0-1.98 0.4-2.69 1.13-0.68 0.7-1.06 1.63-1.06 2.62 0 0.67 0.19 1.34 0.54 1.93 0.18 0.3 0.4 0.58 0.65 0.8 0.04 0.03 0.07 0.06 0.09 0.08l0.06 0.05z"/>
 <path d="m20.18 19.23h-3.36c-0.41 0-0.75-0.34-0.75-0.75s0.34-0.75 0.75-0.75h3.36c0.41 0 0.75 0.34 0.75 0.75s-0.33 0.75-0.75 0.75z"/>
 <path d="m18.5 20.95c-0.41 0-0.75-0.34-0.75-0.75v-3.36c0-0.41 0.34-0.75 0.75-0.75s0.75 0.34 0.75 0.75v3.36c0 0.42-0.34 0.75-0.75 0.75z"/>
</svg>
